X:1727
T:Humphrey's Hornpipe
M:C|
L:1/8
B:O'Neill's 1727
R:Hornpipe
Z:"Transcribed by Bob Safranek, rjs@gsp.org"
K:A
   A2 c>A e>Af>A | e>Af>A e>cB>c | A2 c>A e>Af>A | e>cB>c A>FF>E  |
   A2 c>A e>Af>A | e>Af>A e>cB>c | A>BA>F E>cd>f | ecdB   c>A A2 :|
|: A2 c>e a2 a>f | e>fe>d c>dB>c | A2 A>e a2 a>g | g>bb>a b>ab>c' |
   A2 c>e a2 a>f | e>fe>d c>dB>c | A>BA>F E>cd>f | e>cd>B c>A A2 :|


